X:57
T:Lancers Quadrilles No.2. Le4.057
B:L.Leadley MS#4 c1850
Z:Village Music Project, 2016 Steve Mansfield
M:2/4
L:1/8
N:* a/>a/a/>a/f//a  in Mss
N: ** Bar line at this position in Mss
Q:2/4=50
K:D
A | d/>d/d/>d/ dd | d>A B/>c/d/>e/ | f/>f/f/>f/ ff | f>c d/>e/f/>g/ |
"*" a/>a/a/>a/ ad'| a/>g/f/>g/ ad' | af/g/ b/a/g/f/ | f2 e ||
A | dd c/B/c/A/ | dd c/B/c/A/ | dd/c/ g/f/e/d/ | c/>d/e/>f/ e/>A/B/>c/ |
dd c/B/c/A/ | dd c/B/c/A/ | dd/f/ e/g/c/e/ | d3 ||
d | caaa | a/>g/f/>e/ d/>e/f/>d/ | c/>d/B/>c/ A/>B/c/>A/ | d/>c/d/>e/ f/>e/f/>d/ |
c/>A/c/>e/ a>a | a/>g/f/>e/ d d' | d d' "**" a/>g/f/>e/ | d d' |]

